X: 13166
T: First Of May, The
R: jig
M: 6/8
K: Bminor
f|B>BB d2B|f2B d2B|A>AA c2A|e2A c2A|
B>BB d2B|f2B d2e|faf edc|f>BB B2:|
|:f|faf d2f|faf d2f|cec A2e|cec A2g|
faf d2f|faf d2e|faf edc|f>BB B2:|

